website/static/img/figures/intro/inverse-square-law.svg

<?xml version="1.0" encoding="UTF-8" standalone="no"?>
<!-- Created with Inkscape (http://www.inkscape.org/) -->

<svg
   version="1.1"
   id="svg1"
   width="554.66669"
   height="293.33334"
   viewBox="0 0 554.66669 293.33334"
   sodipodi:docname="inverse-square-law.svg"
   inkscape:version="1.3 (0e150ed6c4, 2023-07-21)"
   xmlns:inkscape="http://www.inkscape.org/namespaces/inkscape"
   xmlns:sodipodi="http://sodipodi.sourceforge.net/DTD/sodipodi-0.dtd"
   xmlns="http://www.w3.org/2000/svg"
   xmlns:svg="http://www.w3.org/2000/svg">
  <defs
     id="defs1">
    <clipPath
       clipPathUnits="userSpaceOnUse"
       id="clipPath2">
      <path
         d="M 0,0 H 4157.07 V 2193.88 H 0 Z"
         transform="translate(0,-2.5000001e-5)"
         id="path2" />
    </clipPath>
    <clipPath
       clipPathUnits="userSpaceOnUse"
       id="clipPath4">
      <path
         d="M 0,0 H 4157.07 V 2193.88 H 0 Z"
         transform="translate(0,-2.5000001e-5)"
         id="path4" />
    </clipPath>
    <clipPath
       clipPathUnits="userSpaceOnUse"
       id="clipPath6">
      <path
         d="M 0,0 H 4157.07 V 2193.88 H 0 Z"
         transform="translate(0,-2.5000001e-5)"
         id="path6" />
    </clipPath>
    <clipPath
       clipPathUnits="userSpaceOnUse"
       id="clipPath8">
      <path
         d="M 0,0 H 4157.07 V 2193.88 H 0 Z"
         transform="translate(0,-2.5000001e-5)"
         id="path8" />
    </clipPath>
    <clipPath
       clipPathUnits="userSpaceOnUse"
       id="clipPath10">
      <path
         d="M 0,0 H 4157.07 V 2193.88 H 0 Z"
         transform="matrix(1.284617,0.74092223,0.66507457,-1.0865662,-1.6626864e-5,2.7164155e-5)"
         id="path10" />
    </clipPath>
    <clipPath
       clipPathUnits="userSpaceOnUse"
       id="clipPath15">
      <path
         d="M 0,0 H 4157.07 V 2193.88 H 0 Z"
         transform="matrix(0.1,0,0,-0.1,-5.0000002,13.679703)"
         id="path15" />
    </clipPath>
    <clipPath
       clipPathUnits="userSpaceOnUse"
       id="clipPath17">
      <path
         d="M 0,0 H 4157.07 V 2193.88 H 0 Z"
         transform="translate(0,-2.5000001e-5)"
         id="path17" />
    </clipPath>
    <clipPath
       clipPathUnits="userSpaceOnUse"
       id="clipPath19">
      <path
         d="M 0,0 H 4157.07 V 2193.88 H 0 Z"
         transform="matrix(0.1,0,0,-0.1,-377.31401,174.505)"
         id="path19" />
    </clipPath>
  </defs>
  <sodipodi:namedview
     id="namedview1"
     pagecolor="#ffffff"
     bordercolor="#000000"
     borderopacity="0.25"
     inkscape:showpageshadow="2"
     inkscape:pageopacity="0.0"
     inkscape:pagecheckerboard="0"
     inkscape:deskcolor="#d1d1d1"
     inkscape:zoom="1.7632211"
     inkscape:cx="277.33334"
     inkscape:cy="146.60668"
     inkscape:window-width="1920"
     inkscape:window-height="1200"
     inkscape:window-x="266"
     inkscape:window-y="266"
     inkscape:window-maximized="0"
     inkscape:current-layer="g1">
    <inkscape:page
       x="0"
       y="0"
       inkscape:label="1"
       id="page1"
       width="554.66669"
       height="293.33334"
       margin="0"
       bleed="0" />
  </sodipodi:namedview>
  <g
     id="g1"
     inkscape:groupmode="layer"
     inkscape:label="1">
    <path
       id="path1"
       d="M 179.543,13.3047 2715.38,1899.24"
       style="fill:none;stroke:#000000;stroke-width:14.1732;stroke-linecap:square;stroke-linejoin:miter;stroke-miterlimit:10;stroke-dasharray:none;stroke-opacity:1"
       transform="matrix(0.13333333,0,0,-0.13333333,0,293.33333)"
       clip-path="url(#clipPath2)" />
    <path
       id="path3"
       d="M 179.543,13.3047 4147.73,1750.45"
       style="fill:none;stroke:#000000;stroke-width:14.1732;stroke-linecap:square;stroke-linejoin:miter;stroke-miterlimit:10;stroke-dasharray:none;stroke-opacity:1"
       transform="matrix(0.13333333,0,0,-0.13333333,0,293.33333)"
       clip-path="url(#clipPath4)" />
    <path
       id="path5"
       d="M 179.543,13.3047 3427.8,494.418"
       style="fill:none;stroke:#000000;stroke-width:14.1732;stroke-linecap:square;stroke-linejoin:miter;stroke-miterlimit:10;stroke-dasharray:none;stroke-opacity:1"
       transform="matrix(0.13333333,0,0,-0.13333333,0,293.33333)"
       clip-path="url(#clipPath6)" />
    <path
       id="path7"
       d="m 3082,1295.27 674.78,783.68"
       style="fill:none;stroke:#000000;stroke-width:14.1732;stroke-linecap:square;stroke-linejoin:miter;stroke-miterlimit:10;stroke-dasharray:none;stroke-opacity:1"
       transform="matrix(0.13333333,0,0,-0.13333333,0,293.33333)"
       clip-path="url(#clipPath8)" />
    <path
       id="path9"
       d="m 4763.43,1993.31 c 40.58,0.02 81.14,-6.87 120.51,-20.26 39.38,-13.35 77.55,-33.2 113.55,-58.43 36.02,-25.22 69.86,-55.81 100.93,-90.25 31.08,-34.45 59.39,-72.74 84.71,-113.28 25.33,-40.56 47.68,-83.36 67.16,-127.01 19.47,-43.65 36.08,-88.15 50.11,-132.4 14.04,-44.26 25.52,-88.26 34.84,-131.27 9.32,-43.01 16.48,-85.03 21.91,-125.6 5.43,-40.58 9.13,-79.71 11.48,-117.19 2.36,-37.47 3.37,-73.29 3.37,-107.387 -0.01,-34.104 -1.01,-69.921 -3.36,-107.395 -2.36,-37.474 -6.06,-76.609 -11.49,-117.189 -5.43,-40.569 -12.59,-82.586 -21.91,-125.601 -9.32,-43.001 -20.8,-87.008 -34.84,-131.268 -14.03,-44.246 -30.64,-88.74 -50.12,-132.396 -19.47,-43.649 -41.82,-86.448 -67.15,-127.004 -25.32,-40.55 -53.63,-78.837 -84.71,-113.281 -31.06,-34.4457 -64.91,-65.0319 -100.92,-90.2494 -36.01,-25.23461 -74.18,-45.0793 -113.56,-58.4436 -39.37,-13.3882 -79.94,-20.2731 -120.51,-20.2546 -40.57,-0.0157 -81.14,6.8694 -120.51,20.2551 -39.37,13.3644 -77.55,33.205194 -113.55,58.442 -36.02,25.218 -69.86,55.8008 -100.93,90.2505 -31.08,34.446 -59.39,72.728 -84.71,113.28 -25.33,40.555 -47.68,83.355 -67.15,127.005 -19.48,43.656 -36.08,88.154 -50.12,132.397 -14.04,44.255 -25.52,88.264 -34.84,131.266 -9.31,43.02 -16.48,85.035 -21.91,125.607 -5.43,40.576 -9.13,79.712 -11.48,117.181 -2.35,37.476 -3.36,73.298 -3.36,107.398 0,34.097 1.01,69.917 3.36,107.397 2.36,37.47 6.05,76.6 11.48,117.18 5.43,40.57 12.6,82.59 21.91,125.61 9.33,43 20.8,87 34.84,131.26 14.04,44.24 30.64,88.74 50.12,132.4 19.47,43.65 41.82,86.45 67.15,127.01 25.32,40.54 53.63,78.83 84.71,113.28 31.07,34.44 64.91,65.03 100.93,90.25 36,25.23 74.17,45.08 113.55,58.43 39.38,13.39 79.94,20.28 120.51,20.26 z"
       style="fill:none;stroke:#000000;stroke-width:28.447;stroke-linecap:square;stroke-linejoin:miter;stroke-miterlimit:10;stroke-dasharray:none;stroke-opacity:1"
       transform="matrix(0.07671093,-0.05230867,0.04695387,0.0906932,0,293.33333)"
       clip-path="url(#clipPath10)" />
    <g
       id="g10"
       aria-label="Q&#10;P&#10;dA&#10;n"
       transform="matrix(1.3333333,0,0,1.3333333,6.6666667,275.09373)"
       clip-path="url(#clipPath15)">
      <path
         id="path11"
         d="M 7.0205078,0.36329375 3.9970703,2.8125125 c 0.4746094,-0.087891 0.9169922,-0.1289062 1.3242188,-0.1289062 0.3896484,0 0.75,0.023437 1.078125,0.070312 0.3339843,0.046875 1.0458984,0.1904296 2.1328125,0.4335937 1.0927734,0.2490234 2.0449214,0.375 2.8593754,0.375 0.867187,0 1.599609,-0.1523437 2.203125,-0.4570312 0.609375,-0.2988282 1.198242,-0.796875 1.769531,-1.5 l 0.386719,0.1875 C 14.945313,2.9472781 13.996094,3.7793094 12.90332,4.289075 11.807617,4.8047 10.647461,5.0625125 9.4228516,5.0625125 8.7431641,5.0625125 7.8115234,4.9277469 6.6337891,4.664075 4.8291016,4.2656375 3.5664063,4.0664188 2.8486328,4.0664188 c -0.2753906,0 -0.4980469,0.017578 -0.6679687,0.058594 C 2.0078125,4.1630984 1.75,4.2568484 1.4072266,4.4062625 L 1.1376953,4.0898563 5.9423828,0.29298125 C 4.4570312,0.08790313 3.3320313,-0.5624875 2.5673828,-1.66405 1.7998047,-2.7656125 1.4189453,-3.9404172 1.4189453,-5.1913937 c 0,-1.7109375 0.515625,-3.4804688 1.546875,-5.3085933 1.0371094,-1.828125 2.3613281,-3.240235 3.9726563,-4.242188 1.6171875,-1.007812 3.2021484,-1.511719 4.7578124,-1.511719 1.154297,0 2.138672,0.234375 2.953125,0.703125 0.820313,0.46875 1.453125,1.154297 1.898438,2.050782 0.445312,0.890625 0.667968,1.804687 0.667968,2.742187 0,1.7988281 -0.512695,3.6181641 -1.535156,5.4609375 -1.025391,1.8457031 -2.296875,3.2431641 -3.820312,4.1953125 -1.517579,0.94628906 -3.1289067,1.43261719 -4.8398442,1.46484375 z M 11.415039,-15.503894 c -0.782226,0 -1.5468749,0.196289 -2.2968749,0.585938 -0.7441407,0.383789 -1.4824219,1.016601 -2.2148438,1.898437 -0.7353516,0.875977 -1.3945312,2.024414 -1.9804687,3.4453128 -0.7119141,1.7519531 -1.0664063,3.4042968 -1.0664063,4.9570312 0,1.1103516 0.2841797,2.0947266 0.8554688,2.953125 0.5683593,0.85253906 1.4443359,1.27734375 2.625,1.27734375 0.703125,0 1.3974609,-0.17578125 2.0859375,-0.52734375 0.6855464,-0.3515625 1.3974614,-0.9492187 2.1328124,-1.7929687 0.9375,-1.078125 1.722656,-2.4492188 2.355469,-4.1132813 0.632812,-1.6640625 0.949219,-3.210937 0.949219,-4.640625 0,-1.054687 -0.28711,-1.992187 -0.855469,-2.8125 -0.571289,-0.820312 -1.435547,-1.230469 -2.589844,-1.230469 z M 290.69043,-140.34081 h 6.25781 c 1.64063,0 2.86524,0.35742 3.67969,1.06641 0.81152,0.70312 1.21875,1.56445 1.21875,2.57812 0,0.80567 -0.25781,1.58789 -0.77344,2.34375 -0.51562,0.75879 -1.2832,1.37696 -2.29687,1.85157 -1.0166,0.46875 -2.11524,0.70312 -3.29297,0.70312 -0.73535,0 -1.66992,-0.13183 -2.80078,-0.39844 l -1.26563,4.33594 c -0.29883,1.03125 -0.44531,1.71094 -0.44531,2.03906 0,0.25196 0.10547,0.45703 0.31641,0.6211 0.21093,0.16406 0.71484,0.26953 1.51171,0.3164 l -0.11718,0.4336 h -6.31641 l 0.12891,-0.4336 c 0.82617,0 1.40039,-0.14062 1.72265,-0.42187 0.32813,-0.28711 0.67969,-1.07813 1.05469,-2.36719 l 2.625,-9.04687 c 0.31055,-1.08399 0.46875,-1.81055 0.46875,-2.17969 0,-0.27246 -0.11426,-0.49805 -0.33984,-0.67969 -0.21973,-0.17871 -0.70899,-0.28711 -1.46485,-0.32812 z m 2.19141,7.40625 c 0.88183,0.22852 1.59375,0.33985 2.13281,0.33985 0.84961,0 1.62305,-0.17579 2.32031,-0.52735 0.70313,-0.35156 1.24805,-0.8789 1.64063,-1.58203 0.39843,-0.70312 0.59765,-1.43262 0.59765,-2.19141 0,-0.78808 -0.24316,-1.4121 -0.72656,-1.875 -0.48633,-0.45996 -1.21875,-0.6914 -2.20313,-0.6914 -0.5332,0 -1.17773,0.0674 -1.93359,0.19922 z m 0,0"
         style="fill:#000000;fill-opacity:1;fill-rule:nonzero;stroke:none" />
      <path
         id="path12"
         d="m 314.89844,-64.391589 c -0.52442,0.547852 -1.03711,0.943359 -1.53516,1.183594 -0.50098,0.234375 -1.04004,0.351562 -1.61719,0.351562 -1.17187,0 -2.19726,-0.486328 -3.07031,-1.464844 -0.87598,-0.984375 -1.3125,-2.24414 -1.3125,-3.785156 0,-1.538086 0.4834,-2.944336 1.45313,-4.21875 0.96679,-1.280273 2.21484,-1.921875 3.73828,-1.921875 0.94336,0 1.72558,0.301758 2.34375,0.902344 v -1.980469 c 0,-1.224609 -0.0322,-1.980469 -0.0937,-2.261719 -0.0557,-0.28125 -0.14649,-0.471679 -0.26953,-0.574218 -0.12598,-0.09961 -0.28125,-0.152344 -0.46875,-0.152344 -0.20508,0 -0.47461,0.06445 -0.8086,0.1875 l -0.15234,-0.410156 3.19922,-1.3125 h 0.52734 v 12.410156 c 0,1.259766 0.0264,2.027344 0.082,2.308594 0.0615,0.27539 0.15528,0.46582 0.28125,0.574218 0.13184,0.111329 0.28418,0.164063 0.45703,0.164063 0.21094,0 0.49219,-0.06445 0.84375,-0.199219 l 0.12891,0.410156 -3.1875,1.324219 h -0.53906 z m 0,-0.820313 v -5.53125 c -0.0469,-0.530273 -0.1875,-1.013671 -0.42188,-1.453125 -0.23437,-0.436523 -0.54785,-0.764648 -0.9375,-0.984375 -0.38379,-0.225585 -0.75879,-0.339843 -1.125,-0.339843 -0.68847,0 -1.30078,0.310547 -1.83984,0.925781 -0.71192,0.814453 -1.06641,2.000977 -1.06641,3.5625 0,1.579102 0.34278,2.789062 1.03125,3.632812 0.68555,0.837891 1.45313,1.253907 2.29688,1.253907 0.70898,0 1.39746,-0.354492 2.0625,-1.066407 z m 0,0"
         style="fill:#000000;fill-opacity:1;fill-rule:nonzero;stroke:none" />
      <path
         id="path13"
         d="m 330.94141,-79.438464 -1.20704,13.21875 c -0.0645,0.618164 -0.0937,1.025391 -0.0937,1.21875 0,0.313477 0.0586,0.550781 0.17579,0.714844 0.14648,0.228515 0.3457,0.395508 0.59765,0.503906 0.25781,0.111328 0.68555,0.164062 1.28906,0.164062 l -0.1289,0.433594 h -6.25781 l 0.1289,-0.433594 h 0.26953 c 0.50684,0 0.91993,-0.108398 1.24219,-0.328125 0.22559,-0.146484 0.40137,-0.392578 0.52734,-0.738281 0.085,-0.240234 0.167,-0.811523 0.2461,-1.710937 l 0.1875,-2.015625 h -4.54688 l -1.61718,2.191406 c -0.36914,0.492187 -0.59766,0.849609 -0.69141,1.066406 -0.0937,0.210938 -0.14063,0.410156 -0.14063,0.597656 0,0.251954 0.0996,0.465821 0.30469,0.644532 0.20215,0.18164 0.53906,0.27832 1.00781,0.292968 l -0.1289,0.433594 h -4.69922 l 0.12891,-0.433594 c 0.58007,-0.02344 1.08398,-0.213867 1.52343,-0.574218 0.44532,-0.366211 1.1045,-1.142578 1.98047,-2.332032 l 9.49219,-12.914062 z m -2.32032,3.902344 -4.60547,6.269531 h 3.9961 z m 0,0"
         style="fill:#000000;fill-opacity:1;fill-rule:nonzero;stroke:none" />
      <path
         id="path14"
         d="m 348.49609,-195.57128 -1.45312,5.02735 c 0.97558,-1.46778 1.70508,-2.47266 2.1914,-3.01172 0.70899,-0.7793 1.32422,-1.3125 1.83985,-1.59375 0.51562,-0.28125 0.99902,-0.42188 1.45312,-0.42188 0.4043,0 0.75293,0.15235 1.04297,0.45703 0.28711,0.29883 0.4336,0.68848 0.4336,1.17188 0,0.43945 -0.0937,0.96973 -0.28125,1.59375 l -1.5,5.00391 c -0.12598,0.43945 -0.1875,0.72363 -0.1875,0.85546 0,0.0791 0.0264,0.14942 0.082,0.21094 0.0615,0.0645 0.12304,0.0937 0.1875,0.0937 0.0762,0 0.1582,-0.0293 0.24609,-0.0937 0.27246,-0.22558 0.55078,-0.54492 0.83203,-0.96094 0.0703,-0.10839 0.18164,-0.27246 0.33985,-0.49218 l 0.44531,0.26953 c -1.14844,1.93066 -2.35547,2.89453 -3.6211,2.89453 -0.48632,0 -0.86425,-0.12598 -1.13671,-0.375 -0.27539,-0.24902 -0.41016,-0.5625 -0.41016,-0.9375 0,-0.32813 0.0937,-0.81445 0.28125,-1.46484 l 1.46484,-5.00391 c 0.0996,-0.32813 0.15235,-0.56836 0.15235,-0.72656 0,-0.085 -0.0352,-0.15821 -0.10547,-0.22266 -0.0703,-0.0703 -0.15235,-0.10547 -0.2461,-0.10547 -0.29882,0 -0.65625,0.20508 -1.07812,0.60938 -1.07813,1.03125 -2.12109,2.5664 -3.12891,4.60547 l -0.96093,3.48046 h -2.98829 l 2.19141,-7.52343 c 0.21094,-0.74121 0.31641,-1.26856 0.31641,-1.58203 0,-0.13184 -0.0322,-0.24024 -0.0937,-0.32813 -0.0645,-0.0937 -0.16407,-0.16406 -0.30469,-0.21094 -0.14063,-0.0527 -0.40723,-0.082 -0.79688,-0.082 l 0.12891,-0.44531 3.94922,-0.69141 z m 0,0"
         style="fill:#000000;fill-opacity:1;fill-rule:nonzero;stroke:none" />
    </g>
    <path
       id="path16"
       d="m 3534.29,1814.16 c 188.66,-30.59 225.73,-160.6 225.44,-217.01"
       style="fill:none;stroke:#000000;stroke-width:10;stroke-linecap:square;stroke-linejoin:miter;stroke-miterlimit:10;stroke-dasharray:none;stroke-opacity:1"
       transform="matrix(0.13333333,0,0,-0.13333333,0,293.33333)"
       clip-path="url(#clipPath17)" />
    <path
       id="path18"
       d="m 8.9184219,-16.663945 c 2.1708981,0 3.2578121,1.488281 3.2578121,4.464843 0,1.798829 -0.442382,3.7910161 -1.324218,5.9765629 -0.8759769,2.1796875 -1.8808597,3.8085938 -3.0117191,4.8867188 -1.125,1.07812499 -2.2851563,1.61718749 -3.4804688,1.61718749 -0.9785156,0 -1.7753906,-0.41308594 -2.390625,-1.2421875 C 1.3598281,-1.7957812 1.0551406,-2.8358203 1.0551406,-4.0780078 c 0,-0.796875 0.1757813,-1.8984375 0.5273438,-3.3046875 0.3515625,-1.40625 0.8789062,-2.8242187 1.5820312,-4.2539067 0.703125,-1.435546 1.5820313,-2.630859 2.6367188,-3.585937 1.0605469,-0.960938 2.1005859,-1.441406 3.1171875,-1.441406 z m 0.7265625,7.9687497 c 0.5214846,-1.6464847 0.7851566,-3.2490237 0.7851566,-4.8046877 0,-1.78125 -0.5039066,-2.671875 -1.5117191,-2.671875 -0.8847656,0 -1.7519531,0.667969 -2.6015625,2.003906 -0.8525391,1.330079 -1.6347656,3.152344 -2.34375,5.4726567 z m -5.8945313,0.6679687 c -0.7207031,2.2441407 -1.078125,3.9609375 -1.078125,5.15625 0,0.7822266 0.1582032,1.4238282 0.4804688,1.92187504 0.3193359,0.4921875 0.796875,0.73828125 1.4296875,0.73828125 0.5214844,0 1.0136719,-0.20507813 1.4765625,-0.62109375 C 6.5190078,-1.2537891 7.0580703,-2.1033984 7.6762344,-3.3866016 8.2914688,-4.666875 8.8744766,-6.21375 9.4223281,-8.0272266 Z m 0,0"
       style="fill:#333333;fill-opacity:1;fill-rule:nonzero;stroke:none"
       aria-label="θ"
       transform="matrix(1.3333333,0,0,1.3333333,503.08533,60.66)"
       clip-path="url(#clipPath19)" />
  </g>
</svg>

<svg xmlns="http://www.w3.org/2000/svg" xmlns:xlink="http://www.w3.org/1999/xlink" version="1.1" width="416pt" height="220pt" viewBox="0 0 416 220">
<defs>
<clipPath id="clip_0">
<path transform="matrix(.1,0,0,-.1,0,220)" d="M0 0H4157.07V2193.88H0Z"/>
</clipPath>
</defs>
<g clip-path="url(#clip_0)">
<path transform="matrix(.1,0,0,-.1,0,220)" stroke-width="14.1732" stroke-linecap="square" stroke-miterlimit="10" stroke-linejoin="miter" fill="none" stroke="#000000" d="M179.543 13.3047 2715.38 1899.24"/>
<path transform="matrix(.1,0,0,-.1,0,220)" stroke-width="14.1732" stroke-linecap="square" stroke-miterlimit="10" stroke-linejoin="miter" fill="none" stroke="#000000" d="M179.543 13.3047 4147.73 1750.45"/>
<path transform="matrix(.1,0,0,-.1,0,220)" stroke-width="14.1732" stroke-linecap="square" stroke-miterlimit="10" stroke-linejoin="miter" fill="none" stroke="#000000" d="M179.543 13.3047 3427.8 494.418"/>
<path transform="matrix(.1,0,0,-.1,0,220)" stroke-width="14.1732" stroke-linecap="square" stroke-miterlimit="10" stroke-linejoin="miter" fill="none" stroke="#000000" d="M3082 1295.27 3756.78 2078.95"/>
<path transform="matrix(.0575332,-.0392315,.0352154,.068019907,0,220)" stroke-width="28.447" stroke-linecap="square" stroke-miterlimit="10" stroke-linejoin="miter" fill="none" stroke="#000000" d="M4763.43 1993.31C4804.01 1993.33 4844.57 1986.44 4883.94 1973.05 4923.32 1959.7 4961.49 1939.85 4997.49 1914.62 5033.51 1889.4 5067.35 1858.81 5098.42 1824.37 5129.5 1789.92 5157.81 1751.63 5183.13 1711.09 5208.46 1670.53 5230.81 1627.73 5250.29 1584.08 5269.76 1540.43 5286.37 1495.93 5300.4 1451.68 5314.44 1407.42 5325.92 1363.42 5335.24 1320.41 5344.56 1277.4 5351.72 1235.38 5357.15 1194.81 5362.58 1154.23 5366.28 1115.1 5368.63 1077.62 5370.99 1040.15 5372 1004.33 5372 970.233 5371.99 936.129 5370.99 900.312 5368.64 862.838 5366.28 825.364 5362.58 786.229 5357.15 745.649 5351.72 705.08 5344.56 663.063 5335.24 620.048 5325.92 577.047 5314.44 533.04 5300.4 488.78 5286.37 444.534 5269.76 400.04 5250.28 356.384 5230.81 312.735 5208.46 269.936 5183.13 229.38 5157.81 188.83 5129.5 150.543 5098.42 116.099 5067.36 81.6533 5033.51 51.0671 4997.5 25.8496 4961.49 .61499 4923.32-19.2297 4883.94-32.594 4844.57-45.9822 4804-52.8671 4763.43-52.8486 4722.86-52.8643 4682.29-45.9792 4642.92-32.5935 4603.55-19.2291 4565.37 .611694 4529.37 25.8485 4493.35 51.0665 4459.51 81.6493 4428.44 116.099 4397.36 150.545 4369.05 188.827 4343.73 229.379 4318.4 269.934 4296.05 312.734 4276.58 356.384 4257.1 400.04 4240.5 444.538 4226.46 488.781 4212.42 533.036 4200.94 577.045 4191.62 620.047 4182.31 663.067 4175.14 705.082 4169.71 745.654 4164.28 786.23 4160.58 825.366 4158.23 862.835 4155.88 900.311 4154.87 936.133 4154.87 970.233 4154.87 1004.33 4155.88 1040.15 4158.23 1077.63 4160.59 1115.1 4164.28 1154.23 4169.71 1194.81 4175.14 1235.38 4182.31 1277.4 4191.62 1320.42 4200.95 1363.42 4212.42 1407.42 4226.46 1451.68 4240.5 1495.92 4257.1 1540.42 4276.58 1584.08 4296.05 1627.73 4318.4 1670.53 4343.73 1711.09 4369.05 1751.63 4397.36 1789.92 4428.44 1824.37 4459.51 1858.81 4493.35 1889.4 4529.37 1914.62 4565.37 1939.85 4603.54 1959.7 4642.92 1973.05 4682.3 1986.44 4722.86 1993.33 4763.43 1993.31ZM4763.43 1993.31"/>
<text xml:space="preserve" transform="matrix(1 0 -0 1 0 220)" font-size="24" font-family="TimesNewRomanPS" font-style="italic"><tspan y="-13.6797" x="5">Q</tspan><tspan y="-138.1287" x="291.929">P</tspan></text>
<text xml:space="preserve" transform="matrix(1 0 -0 1 0 220)" font-size="24" font-family="TimesNewRomanPSMT"><tspan y="-76.8642" x="311.56529">d</tspan></text>
<text xml:space="preserve" transform="matrix(1 0 -0 1 0 220)" font-size="24" font-family="TimesNewRomanPS" font-style="italic"><tspan y="-76.8642" x="323.56529">A</tspan></text>
<text xml:space="preserve" transform="matrix(1 0 -0 1 0 220)" font-size="24" font-family="TimesNewRomanPS" font-weight="bold" font-style="italic"><tspan y="-198.3882" x="347.08558">n</tspan></text>
<path transform="matrix(.1,0,0,-.1,0,220)" stroke-width="10" stroke-linecap="square" stroke-miterlimit="10" stroke-linejoin="miter" fill="none" stroke="#000000" d="M3534.29 1814.16C3722.95 1783.57 3760.02 1653.56 3759.73 1597.15"/>
<text fill="#333333" xml:space="preserve" transform="matrix(1 0 -0 1 0 220)" font-size="24" font-family="TimesNewRomanPS" font-style="italic"><tspan y="-174.505" x="377.314">&#x03b8;</tspan></text>
</g>
</svg>
